packages/ffe-icons/icons/open/500/sm/mode_off_on.svg

<svg xmlns="http://www.w3.org/2000/svg" height="20" viewBox="0 -960 960 960" width="20"><path d="M480.211-480q-17.363 0-29.537-12.024T438.5-521.5v-309.13q0-17.453 11.963-29.477 11.964-12.024 29.326-12.024 17.363 0 29.537 12.024T521.5-830.63v309.13q0 17.452-11.963 29.476Q497.573-480 480.211-480ZM480-135.869q-71.674 0-134.242-27.198-62.568-27.198-109.031-73.66-46.462-46.463-73.66-109.031Q135.869-408.326 135.869-480q0-58.335 19.283-113.548T210.717-694q11.196-15.152 28.826-17.13 17.631-1.979 30.544 10.695Q281.761-688 283.12-671.228q1.358 16.772-7.598 29.685-27.781 35.043-42.217 76.13Q218.87-524.326 218.87-480q0 109.119 75.941 185.125 75.941 76.005 184.967 76.005 109.026 0 185.189-76.006Q741.13-370.881 741.13-480q0-45.087-15.282-85.674-15.283-40.587-42.37-76.63-9.956-13.152-8.717-29.924Q676-689 688.674-701.435q12.152-12.913 29.783-10.554 17.63 2.359 29.845 17.111Q785.805-649 804.968-593.88q19.163 55.119 19.163 113.88 0 71.674-27.198 134.242-27.198 62.568-73.66 109.031-46.463 46.462-109.031 73.66Q551.674-135.869 480-135.869Z"/></svg>

<svg xmlns="http://www.w3.org/2000/svg" height="20" viewBox="0 -960 960 960" width="20"><path d="M480.21-480q-17.36 0-29.54-12.02-12.17-12.03-12.17-29.48v-309.13q0-17.45 11.96-29.48 11.97-12.02 29.33-12.02t29.54 12.02q12.17 12.03 12.17 29.48v309.13q0 17.45-11.96 29.48Q497.57-480 480.21-480ZM480-135.87q-71.67 0-134.24-27.2-62.57-27.2-109.03-73.66-46.46-46.46-73.66-109.03-27.2-62.57-27.2-134.24 0-58.33 19.28-113.55 19.28-55.21 55.57-100.45 11.19-15.15 28.82-17.13 17.63-1.98 30.55 10.7 11.67 12.43 13.03 29.2 1.36 16.77-7.6 29.69-27.78 35.04-42.21 76.13-14.44 41.08-14.44 85.41 0 109.12 75.94 185.12 75.94 76.01 184.97 76.01 109.02 0 185.19-76.01 76.16-76 76.16-185.12 0-45.09-15.28-85.67-15.28-40.59-42.37-76.63-9.96-13.16-8.72-29.93 1.24-16.77 13.91-29.2 12.16-12.92 29.79-10.56 17.63 2.36 29.84 17.11 37.5 45.88 56.67 101 19.16 55.12 19.16 113.88 0 71.67-27.2 134.24-27.2 62.57-73.66 109.03-46.46 46.46-109.03 73.66-62.57 27.2-134.24 27.2Z"/></svg>
